fs/zoom_fit_16_filled.svg

<svg viewBox="0 0 16 16" fill="none" xmlns="http://www.w3.org/2000/svg" height="1em" width="1em">
  <path d="M5.65493 2.63843C5.45525 2.82917 5.44801 3.14567 5.63875 3.34535C5.82949 3.54503 6.14599 3.55227 6.34567 3.36153L7.65805 2.10787C7.85164 1.92295 8.15652 1.92332 8.34966 2.1087L9.65407 3.3607C9.85329 3.55192 10.1698 3.54544 10.361 3.34621C10.5522 3.14699 10.5458 2.83047 10.3465 2.63925L9.04213 1.38725C8.46271 0.831105 7.54805 0.830015 6.96731 1.38477L5.65493 2.63843ZM3.36203 6.34556C3.55278 6.14589 3.54555 5.82939 3.34588 5.63864C3.14621 5.44788 2.82971 5.45511 2.63896 5.65478L1.38806 6.96416C0.834139 7.54396 0.834197 8.45689 1.38819 9.03663L2.63965 10.3463C2.83043 10.5459 3.14693 10.5531 3.34658 10.3623C3.54622 10.1715 3.55341 9.85503 3.36263 9.65539L2.11117 8.34576C1.9265 8.15251 1.92648 7.8482 2.11112 7.65493L3.36203 6.34556ZM6.34577 12.6385C6.14614 12.4477 5.82964 12.4549 5.63884 12.6545C5.44805 12.8541 5.45521 13.1706 5.65483 13.3614L6.96933 14.6178C7.55089 15.1736 8.46739 15.1717 9.04664 14.6135L10.3473 13.36C10.5461 13.1684 10.5519 12.8518 10.3603 12.653C10.1687 12.4542 9.85217 12.4483 9.65333 12.64L8.3527 13.8934C8.15962 14.0795 7.85412 14.0802 7.66027 13.8949L6.34577 12.6385ZM13.361 5.65389C13.1697 5.45469 12.8532 5.44825 12.654 5.63949C12.4548 5.83074 12.4484 6.14726 12.6396 6.34645L13.8974 7.65647C14.0834 7.85019 14.0831 8.15625 13.8968 8.34966L12.6402 9.65392C12.4486 9.85278 12.4545 10.1693 12.6534 10.3609C12.8523 10.5525 13.1688 10.5466 13.3604 10.3477L14.6169 9.04347C15.1759 8.46325 15.1767 7.54508 14.6187 6.9639L13.361 5.65389ZM5.00022 6.49998C5.00022 5.67155 5.67179 4.99998 6.50022 4.99998H9.50022C10.3286 4.99998 11.0002 5.67155 11.0002 6.49998V9.49998C11.0002 10.3284 10.3286 11 9.50022 11H6.50022C5.67179 11 5.00022 10.3284 5.00022 9.49998V6.49998Z" fill="#212121"/>
</svg>

<svg viewBox="0 0 16 16" fill="none" xmlns="http://www.w3.org/2000/svg" height="1em" width="1em">
  <path d="M5.655 2.638a.5.5 0 0 0 .69.724l1.313-1.254a.5.5 0 0 1 .692 0l1.304 1.253a.5.5 0 1 0 .693-.722L9.042 1.387a1.5 1.5 0 0 0-2.075-.002L5.655 2.638ZM3.362 6.346a.5.5 0 0 0-.723-.691l-1.25 1.31a1.5 1.5 0 0 0 0 2.072l1.25 1.31a.5.5 0 0 0 .724-.692L2.11 8.345a.5.5 0 0 1 0-.69l1.251-1.31Zm2.984 6.293a.5.5 0 0 0-.691.722l1.314 1.257a1.5 1.5 0 0 0 2.078-.005l1.3-1.253a.5.5 0 0 0-.694-.72l-1.3 1.253a.5.5 0 0 1-.693.002l-1.314-1.256Zm7.015-6.985a.5.5 0 0 0-.721.692l1.257 1.31a.5.5 0 0 1 0 .694L12.64 9.654a.5.5 0 1 0 .72.694l1.257-1.305a1.5 1.5 0 0 0 .002-2.08l-1.258-1.31Zm-8.36.846A1.5 1.5 0 0 1 6.5 5h3A1.5 1.5 0 0 1 11 6.5v3A1.5 1.5 0 0 1 9.5 11h-3A1.5 1.5 0 0 1 5 9.5v-3Z" fill="#212121"/>
</svg>
